images/color/svg/1f976.svg

<svg id="emoji" viewBox="0 0 72 72" xmlns="http://www.w3.org/2000/svg">
  <g id="color">
    <path fill="#92D3F5" d="M35.9999,12c-13.2548,0.0001-24,10.7453-23.9999,24.0001s10.7453,24,24.0001,23.9999S60,49.2548,60,36 C59.9851,22.7513,49.2486,12.0148,35.9999,12z"/>
  </g>
  <g id="hair"/>
  <g id="skin"/>
  <g id="skin-shadow"/>
  <g id="line">
    <path fill="none" stroke="#000000" stroke-linecap="round" stroke-miterlimit="10" stroke-width="2" d="M43.8205,57.6363 c-4.7155,1.6955-9.8543,1.8131-14.6425,0.3351"/>
    <path fill="none" stroke="#000000" stroke-linecap="round" stroke-miterlimit="10" stroke-width="2" d="M50.9146,18.4907 c3.8179,3.2489,6.4692,7.6567,7.55,12.5519"/>
    <path fill="none" stroke="#000000" stroke-linecap="round" stroke-miterlimit="10" stroke-width="2" d="M13.5618,30.9249 C16.3717,18.53,28.6976,10.7598,41.0925,13.5697c2.1987,0.4984,4.3123,1.3173,6.2729,2.4303"/>
    <path fill="#FFFFFF" stroke="#000000" stroke-miterlimit="10" stroke-width="2" d="M11.6507,36.29 c-0.7568,1.7452-1.1284,3.633-1.0894,5.5348c0.1645,4.7481,1.2598,9.4176,3.2237,13.7436c0.2737,0.5758,0.7167,0.5752,0.99,0 c1.9644-4.3267,3.0601-8.9969,3.225-13.7458v-0.0005C17.9991,37.5092,16.33,34,14.28,34 C13.2875,33.9975,12.3535,34.8115,11.6507,36.29z"/>
    <path fill="#FFFFFF" stroke="#000000" stroke-miterlimit="10" stroke-width="2" d="M54.6507,36.29 c-0.7568,1.7452-1.1284,3.633-1.0894,5.5348c0.1645,4.7481,1.2598,9.4176,3.2237,13.7436c0.2737,0.5758,0.7167,0.5752,0.99,0 c1.9644-4.3267,3.0601-8.9969,3.225-13.7458v-0.0005C60.9991,37.5092,59.33,34,57.28,34 C56.2875,33.9975,55.3535,34.8115,54.6507,36.29z"/>
    <path fill="#FFFFFF" stroke="#000000" stroke-miterlimit="10" stroke-width="2" d="M21.3578,52.2176 c-0.5411,0.8848-0.8175,1.9061-0.7965,2.943c0.1523,2.5967,0.9634,5.1118,2.357,7.3081c0.094,0.1999,0.3323,0.2857,0.5322,0.1917 c0.0843-0.0396,0.152-0.1074,0.1917-0.1917C25.0359,60.2721,25.8473,57.7569,26,55.16l0,0C25.9993,52.866,24.7793,51,23.28,51 C22.4724,51.0481,21.7463,51.508,21.3578,52.2176z"/>
    <path fill="#FFFFFF" stroke="#000000" stroke-miterlimit="10" stroke-width="2" d="M47.3578,52.2176 c-0.5411,0.8848-0.8175,1.9061-0.7965,2.943c0.1523,2.5967,0.9634,5.1118,2.357,7.3081c0.094,0.1999,0.3323,0.2857,0.5322,0.1917 c0.0843-0.0396,0.152-0.1074,0.1917-0.1917C51.0359,60.2721,51.8473,57.7569,52,55.16l0,0C51.9993,52.866,50.7793,51,49.28,51 C48.4724,51.0481,47.7463,51.508,47.3578,52.2176z"/>
    <path fill="#FFFFFF" stroke="#000000" stroke-miterlimit="2" stroke-width="2" d="M44.5,49.2708h-17 c-2.2064-0.0065-3.9935-1.7936-4-4l0,0c0.0065-2.2064,1.7936-3.9935,4-4h17c2.2064,0.0065,3.9935,1.7936,4,4l0,0 C48.4935,47.4772,46.7064,49.2643,44.5,49.2708z"/>
    <line x1="28" x2="28" y1="41.7708" y2="48.7708" fill="none" stroke="#000000" stroke-linecap="round" stroke-linejoin="round" stroke-width="2"/>
    <line x1="33" x2="33" y1="41.7708" y2="48.7708" fill="none" stroke="#000000" stroke-linecap="round" stroke-linejoin="round" stroke-width="2"/>
    <line x1="38" x2="38" y1="41.7708" y2="48.7708" fill="none" stroke="#000000" stroke-linecap="round" stroke-linejoin="round" stroke-width="2"/>
    <line x1="43" x2="43" y1="41.7708" y2="48.7708" fill="none" stroke="#000000" stroke-linecap="round" stroke-linejoin="round" stroke-width="2"/>
    <path fill="#FFFFFF" stroke="#000000" stroke-miterlimit="10" stroke-width="2" d="M48.335,16.7993 C49.13,16.6336,49.8566,15.915,50,14c0.2987-3.9888-9-4-9-4s-3,0-9-3s-12,7-12,7s-3,6-5,5s-5,2-3,6c0,0,1,7,6,2s3-8,10-7s11,0,11-2 s5-4,7-2C46.5946,16.6418,47.4718,16.942,48.335,16.7993"/>
    <path d="M30,31c0,1.6568-1.3448,3-3,3c-1.6553,0-3-1.3433-3-3c0-1.6552,1.3447-3,3-3C28.6552,28,30,29.3448,30,31"/>
    <path d="M48,31c0,1.6568-1.3447,3-3,3s-3-1.3433-3-3c0-1.6552,1.3447-3,3-3S48,29.3448,48,31"/>
  </g>
</svg>

<svg viewBox="0 0 72 72" xmlns="http://www.w3.org/2000/svg"><path fill="#92D3F5" d="M36 12c-13.25 0-24 10.75-24 24s10.75 24 24 24 24-10.75 24-24c-.015-13.25-10.75-23.99-24-24z"/><path fill="#fff" d="M11.65 36.29a13.23 13.23 0 0 0-1.089 5.535 36.25 36.25 0 0 0 3.224 13.74c.274.576.717.575.99 0A36.31 36.31 0 0 0 18 41.815c0-4.313-1.67-7.822-3.72-7.822-.993-.003-1.926.811-2.629 2.29zm43 0a13.23 13.23 0 0 0-1.089 5.535 36.25 36.25 0 0 0 3.224 13.74c.274.576.717.575.99 0A36.31 36.31 0 0 0 61 41.815c0-4.313-1.67-7.822-3.72-7.822-.993-.003-1.926.811-2.629 2.29zM21.36 52.22a5.43 5.43 0 0 0-.796 2.943 15.311 15.311 0 0 0 2.356 7.308.4.4 0 0 0 .724 0 15.323 15.323 0 0 0 2.358-7.309c0-2.294-1.22-4.16-2.72-4.16a2.35 2.35 0 0 0-1.922 1.218zm26 0a5.43 5.43 0 0 0-.796 2.943 15.311 15.311 0 0 0 2.356 7.308.4.4 0 0 0 .724 0 15.323 15.323 0 0 0 2.358-7.309c0-2.294-1.22-4.16-2.72-4.16a2.35 2.35 0 0 0-1.922 1.218zm-2.86-2.95h-17a4.012 4.012 0 0 1-4-4 4.012 4.012 0 0 1 4-4h17a4.012 4.012 0 0 1 4 4 4.012 4.012 0 0 1-4 4zm3.84-32.47c.795-.166 1.522-.884 1.665-2.799.299-3.989-9-4-9-4s-3 0-9-3-12 7-12 7-3 6-5 5-5 2-3 6c0 0 1 7 6 2s3-8 10-7 11 0 11-2 5-4 7-2a2.604 2.604 0 0 0 2.335.8"/><path fill="none" stroke="#000" stroke-linecap="round" stroke-miterlimit="10" stroke-width="2" d="M43.82 57.64a23.111 23.111 0 0 1-14.64.335M50.91 18.49a22.993 22.993 0 0 1 7.55 12.55m-44.9-.12a23.27 23.27 0 0 1 .549-2.004"/><path fill="none" stroke="#000" stroke-miterlimit="10" stroke-width="2" d="M11.65 36.29a13.23 13.23 0 0 0-1.089 5.535 36.25 36.25 0 0 0 3.224 13.74c.274.576.717.575.99 0A36.31 36.31 0 0 0 18 41.815c0-4.313-1.67-7.822-3.72-7.822-.993-.003-1.926.811-2.629 2.29zm43 0a13.23 13.23 0 0 0-1.089 5.535 36.25 36.25 0 0 0 3.224 13.74c.274.576.717.575.99 0A36.31 36.31 0 0 0 61 41.815c0-4.313-1.67-7.822-3.72-7.822-.993-.003-1.926.811-2.629 2.29zM21.36 52.22a5.43 5.43 0 0 0-.796 2.943 15.311 15.311 0 0 0 2.356 7.308.4.4 0 0 0 .724 0 15.323 15.323 0 0 0 2.358-7.309c0-2.294-1.22-4.16-2.72-4.16a2.35 2.35 0 0 0-1.922 1.218zm26 0a5.43 5.43 0 0 0-.796 2.943 15.311 15.311 0 0 0 2.356 7.308.4.4 0 0 0 .724 0 15.323 15.323 0 0 0 2.358-7.309c0-2.294-1.22-4.16-2.72-4.16a2.35 2.35 0 0 0-1.922 1.218z"/><path fill="none" stroke="#000" stroke-miterlimit="2" stroke-width="2" d="M44.5 49.27h-17a4.012 4.012 0 0 1-4-4 4.012 4.012 0 0 1 4-4h17a4.012 4.012 0 0 1 4 4 4.012 4.012 0 0 1-4 4z"/><path fill="none" stroke="#000" stroke-linecap="round" stroke-linejoin="round" stroke-width="2" d="M28 41.77v7m5-7v7m5-7v7m5-7v7"/><path fill="none" stroke="#000" stroke-miterlimit="10" stroke-width="2" d="M48.34 16.8c.795-.166 1.522-.884 1.665-2.799.299-3.989-9-4-9-4s-3 0-9-3-12 7-12 7-3 6-5 5-5 2-3 6c0 0 1 7 6 2s3-8 10-7 11 0 11-2 5-4 7-2a2.604 2.604 0 0 0 2.335.8"/><path d="M30 31a3.001 3.001 0 0 1-6 0c0-1.655 1.345-3 3-3s3 1.345 3 3m18 0a3.001 3.001 0 0 1-6 0c0-1.655 1.345-3 3-3s3 1.345 3 3"/></svg>
